X:1
T:Veu le grief
T:Guillaume le Heurteur
T:Source : Premier livre contenant 31 chansons eslevées à 4 parties---Paris---P.Attaignant---1535. Editor : André Vierendeels ( 02/01/18). Notes : Original clefs : G2, C2, C3, F3 Original note values have been halved Editorial accidentals above the staff Square bracket indicates ligature Dotted brackets indicate black notes
T:Veu le grief
T:©
T:©
T:©
T:©
C:Guillaume le Heurteur
Z:©
%%score [ 1 2 [ 3 4 ] ]
L:1/8
Q:1/4=120
M:2/2
K:C
V:1 treble nm="Soprano" snm="S"
V:2 treble nm="Alto" snm="A"
V:3 treble-8 nm="Tenor 1" snm="T 1"
V:4 treble-8 nm="Tenor 2" snm="T 2"
V:1
 d8 | c4 d4 | e8 | z8 | z4 z2 c2 | d4 e2 g2- | g2 f4 e2- | e2 d4 c2 | d4 z2 d2 | d2 d2 c3 d | %10
w: Veu|le grief|mal||où|sans re- pos,|_ la- beu-||re ie|m'es- ba- his _|
 e2 d4 cB | A2 d2 d2 d2 | c3 d ed f2- | f2 e4 d2 | e8 | z8 | z8 | z2 A2 c2 d2 | e4 z2 d2 | %19
w: _ com- * *|ment, com- ment puis|tant _ _ _ _|_ du- *|rer,|||plus ne m'est|long le|
 f2 f2 e2 d2- | d2 cB c2 B2- | B2 A4 G2 | A4 z4 | d8 | c4 d4 | e8 | z8 | z4 z2 c2 | d4 e2 g2- | %29
w: ter- me d'en- du-|||rer,|car|de brief|temps||con-|vien- dra que|
 g2 f4 e2- | e2 d4 c2 | d4 z4 | d8 | c4 d4 | e8 | z8 | z4 z2 c2 | d4 e2 g2- | g2 f4 e2- | %39
w: _ ie meu-||re,|car|de brief|temps,||con-|vien- dra que|_ ie meu-|
"^#" e2 d4 c2 | d8 |] %41
w: |re.|
V:2
 F8 | F4 F4 | E6 E/D/E/F/ | G4 z4 | z4 c4 | B2 A2 G3 A | B2 A3 B c2 | _B2 G2 A4 | F3 G A4 | %9
w: Veu|le grief|mal _ _ _ _|_|où|sans re- pos _|_ la _ _|beu- * *|* * re,|
 z4 z2 A2 | A2 A2 G2 G2 | F4 z2 D2 | A4 B2 c2- | cB c2 B2 A2- | A2 GF G4 | A4 z4 | z2 E2 F2 G2 | %17
w: ie|m'es- ba- his com-|ment, com-|ment puis tant|_ _ _ du- *||rer,|plus ne m'est|
 A8 | z4 z2 G2 | FEFG A2 F2 | A6 G2- | GFED E4 | E4 z4 | F8 | F4 F4 | E6 E/D/E/F/ | G4 z4 | z4 c4 | %28
w: long|le|ter- * * * me d'en-||* * * * du-|rer,|car|de brief|temps _ _ _ _|_|con-|
 B2 A2 G3 A | B2 A3 B c2 | _B2 G2 A4 | F4 z4 | F8 | F4 F4 | E6 E/D/E/F/ | G4 z4 | z4 c4 | %37
w: vien- dra que _|_ _ _ _|* ie meu-|re,|car|de brief|temps, _ _ _ _|_|con-|
 B2 A2 G3 A | B2 A3 B c2 | _B2 G2 A4 | F8 |] %41
w: vien- dra que _|_ _ _ _|* ie meu-|re.|
V:3
 A8 | A4 _B4 | c4 z2 c2 | d4 e2 g2- | g2 f4 e2- | e2 d4 c2 | d3 e fgaf | gfed e4 | d4 z2 d2 | %9
w: Veu|le grief|mal où|sans re- pos|_ la- beu-||||re, ie|
 f2 g2 e4 | z8 | z2 d2 f2 g2 | e2 f2 g2 a2 | g2 fe f2 f2 | e8 | z2 A2 c2 d2 | e4 z2 d2 | %17
w: m'es- ba- his||ie m'es- ba-|his com- ment puis|tant _ _ _ du-|rer,|plus ne m'est|long le|
 f2 f2 e2 d2- | d2 c2 B4 | A4 z2 d2 | f2 f2 e4 | d2 c2 B4 | A4 z4 | A8 | A4 B4 | c4 z2 c2 | %26
w: ter- me d'en- du-||rer, le|ter- me d'en-|* * du-|rer,|car|de brief|temps con|
 d4 e2 g2- | g2 f4 e2- | e2 d4 c2 | d3 e fgaf | gfed e4 | d4 z4 | A8 | A4 B4 | c4 z2 c2 | %35
w: vien- dra que|_ ie meu-||||re,|car|de brief|temps, con-|
 d4 e2 g2- | g2 f4 e2- | e2 d4 c2 | d3 e fgaf | gfed e4 | d8 |] %41
w: vien- dra que|_ ie meu-||||re.|
V:4
 D8 | F4 D4 | C4 z2 c2- | c2 B2 A2 G2 | A3 G FE A2 | G2 F2 E4 | D4 z2 A2 | _B4 A4 | D8 | z4 z2 A2 | %10
w: Veu|le grief|mal où|_ sans re- pos|la- * * * *|* * beu-|re, la|beu- *|re,|ie|
 c2 d2 B2 c2 | d4 _B2 G2 | A4 G2 F2 | c4 d4 | A4 z2 E2 | F3 G A2 B2 |"^#" c3 B A2 G2 | FEFG A2 F2 | %18
w: m'es- ba- his com-|ment puis tant|_ _ _|* du-|rer, plus|ne m'est long le|ter- * * me|d'en- * * * * *|
 G2 A4 G2 | A4 z2 D2 | DEFG A2 E2 | G2 A2 E4 | A4 z4 | D8 | F4 D4 | C4 z2 c2- | c2 B2 A2 G2 | %27
w: * * du-|rer, le|ter- * * * * me|d'en- * du-|rer,|car|de brief|temps, con-|* vien- dra que|
 A3 G FE A2 | G2 F2 E4 | D4 z2 A2 | _B4 A4 | D4 z4 | D8 | F4 D4 | C4 z2 c2- | c2 B2 A2 G2 | %36
w: ie _ _ _ _|meu- * *|re, que|ie meu-|re,|car|de brief|temps, con-|* vien- dra que|
 A3 G FE A2 | G2 F2 E4 | D4 z2 A2 | _B4 A4 | D8 |] %41
w: ie _ _ _ _|meu- * *|re, que|ie meu-|re.|

